;START_OF_HEADER
;HEADER_VERSION:0.1
;FLAVOR:Griffin
;GENERATOR.NAME:Cura_SteamEngine
;GENERATOR.VERSION:master
;GENERATOR.BUILD_DATE:2020-10-03
;TARGET_MACHINE.NAME:Ultimaker S5
;EXTRUDER_TRAIN.0.INITIAL_TEMPERATURE:200
;EXTRUDER_TRAIN.0.MATERIAL.VOLUME_USED:833
;EXTRUDER_TRAIN.0.MATERIAL.GUID:506c9f0d-e3aa-4bd4-b2d2-23e2425b1aa9
;EXTRUDER_TRAIN.0.NOZZLE.DIAMETER:0.4
;EXTRUDER_TRAIN.0.NOZZLE.NAME:AA 0.4
;BUILD_PLATE.TYPE:glass
;BUILD_PLATE.INITIAL_TEMPERATURE:60
;BUILD_VOLUME.TEMPERATURE:28
;PRINT.TIME:657
;PRINT.GROUPS:1
;PRINT.SIZE.MIN.X:155.13
;PRINT.SIZE.MIN.Y:110.13
;PRINT.SIZE.MIN.Z:0.2
;PRINT.SIZE.MAX.X:174.87
;PRINT.SIZE.MAX.Y:129.87
;PRINT.SIZE.MAX.Z:12.8
;END_OF_HEADER
;Generated with Cura_SteamEngine master
T0
M82 ;absolute extrusion mode

G92 E0
M109 S200
G280 S1
G0 Z20.001
G1 F1500 E-6.5
;LAYER_COUNT:64
;LAYER:0
M107
M204 S625
M205 X10 Y10
G0 F2571.4 X173.863 Y128.207 Z0.2
M204 S500
M205 X5 Y5
;TYPE:SKIRT
G1 F1500 E0
G1 F1200 X172.995 Y129.024 E0.0157
G1 X171.941 Y129.584 E0.03141
G1 X171.368 Y129.753 E0.03928
G1 X170.516 Y129.859 E0.05058
G1 X170.07 Y129.87 E0.05646
G1 X160.249 Y129.87 E0.18577
G1 X158.956 Y129.813 E0.20282
G1 X157.81 Y129.483 E0.21852
G1 X156.792 Y128.861 E0.23423
G1 X155.974 Y127.993 E0.24993
G1 X155.416 Y126.939 E0.26564
G1 X155.247 Y126.366 E0.2735
G1 X155.141 Y125.512 E0.28483
G1 X155.13 Y125.058 E0.29081
G1 X155.13 Y115.214 E0.42043
G1 X155.187 Y113.953 E0.43705
G1 X155.518 Y112.807 E0.45276
G1 X156.14 Y111.789 E0.46847
G1 X157.009 Y110.973 E0.48417
G1 X158.064 Y110.415 E0.49988
G1 X158.637 Y110.246 E0.50775
G1 X159.484 Y110.141 E0.51898
G1 X159.93 Y110.13 E0.52486
G1 X169.757 Y110.13 E0.65426
G1 X171.051 Y110.189 E0.67131
G1 X172.196 Y110.521 E0.68701
G1 X173.213 Y111.144 E0.70271
G1 X174.029 Y112.013 E0.71841
G1 X174.587 Y113.068 E0.73412
G1 X174.755 Y113.641 E0.74199
G1 X174.859 Y114.484 E0.75317
G1 X174.87 Y114.93 E0.75905
G1 X174.87 Y124.719 E0.88794
G1 X174.813 Y126.042 E0.90538
G1 X174.484 Y127.188 E0.92108
G1 X173.863 Y128.207 E0.93679
M204 S625
M205 X10 Y10
G0 F2571.4 X173.448 Y128.047
M204 S500
M205 X5 Y5
G1 F1200 X172.591 Y128.791 E0.95173
G1 X171.562 Y129.268 E0.96667
G1 X170.505 Y129.439 E0.98077
G1 X170.07 Y129.45 E0.9865
G1 X160.255 Y129.45 E1.11573
G1 X158.99 Y129.393 E1.13241
G1 X157.904 Y129.064 E1.14735
G1 X156.951 Y128.447 E1.1623
G1 X156.208 Y127.59 E1.17723
G1 X155.731 Y126.56 E1.19218
G1 X155.56 Y125.5 E1.20632
G1 X155.55 Y125.058 E1.21214
G1 X155.55 Y115.219 E1.34169
G1 X155.607 Y113.987 E1.35793
G1 X155.937 Y112.901 E1.37288
G1 X156.555 Y111.949 E1.38782
G1 X157.412 Y111.206 E1.40276
G1 X158.443 Y110.731 E1.4177
G1 X159.495 Y110.561 E1.43174
G1 X159.93 Y110.55 E1.43747
G1 X169.751 Y110.55 E1.56678
G1 X171.016 Y110.608 E1.58346
G1 X172.102 Y110.939 E1.59841
G1 X173.053 Y111.558 E1.61335
G1 X173.795 Y112.416 E1.62828
G1 X174.27 Y113.447 E1.64323
G1 X174.439 Y114.496 E1.65722
G1 X174.45 Y114.93 E1.66294
G1 X174.45 Y124.714 E1.79177
G1 X174.394 Y126.008 E1.80882
G1 X174.065 Y127.094 E1.82376
G1 X173.448 Y128.047 E1.83871
M204 S625
M205 X10 Y10
G0 F2571.4 X173.035 Y127.878
M204 S500
M205 X5 Y5
G1 F1200 X172.192 Y128.543 E1.85285
G1 X171.19 Y128.932 E1.867
G1 X170.172 Y129.029 E1.88047
G1 X160.26 Y129.03 E2.01098
G1 X159.026 Y128.974 E2.02725
G1 X158.003 Y128.646 E2.0414
G1 X157.121 Y128.034 E2.05553
G1 X156.456 Y127.19 E2.06968
G1 X156.068 Y126.189 E2.08382
G1 X155.971 Y125.156 E2.09748
G1 X155.97 Y115.225 E2.22824
G1 X156.027 Y114.023 E2.24409
G1 X156.355 Y113.001 E2.25822
G1 X156.968 Y112.119 E2.27236
G1 X157.812 Y111.455 E2.2865
G1 X158.814 Y111.067 E2.30065
G1 X159.828 Y110.971 E2.31406
G1 X169.745 Y110.97 E2.44465
G1 X170.979 Y111.028 E2.46091
G1 X172.002 Y111.357 E2.47506
G1 X172.883 Y111.971 E2.4892
G1 X173.546 Y112.816 E2.50334
G1 X173.933 Y113.818 E2.51749
G1 X174.029 Y114.828 E2.53085
G1 X174.03 Y124.709 E2.66095
G1 X173.974 Y125.972 E2.6776
G1 X173.647 Y126.996 E2.69175
G1 X173.035 Y127.878 E2.70589
M204 S625
M205 X10 Y10
G0 F2571.4 X172.623 Y127.698
M204 S500
M205 X5 Y5
G1 F1200 X171.796 Y128.277 E2.71918
G1 X170.83 Y128.571 E2.73248
G1 X170.07 Y128.61 E2.7425
G1 X160.266 Y128.61 E2.87159
G1 X159.063 Y128.554 E2.88745
G1 X158.108 Y128.228 E2.90074
G1 X157.301 Y127.622 E2.91403
G1 X156.722 Y126.795 E2.92732
G1 X156.429 Y125.829 E2.94061
G1 X156.39 Y125.058 E2.95078
G1 X156.39 Y115.231 E3.08017
G1 X156.446 Y114.061 E3.09559
G1 X156.773 Y113.106 E3.10889
G1 X157.38 Y112.299 E3.12218
G1 X158.207 Y111.721 E3.13547
G1 X159.174 Y111.429 E3.14877
G1 X159.93 Y111.39 E3.15874
G1 X169.739 Y111.39 E3.2879
G1 X170.941 Y111.447 E3.30374
G1 X171.896 Y111.775 E3.31704
G1 X172.702 Y112.382 E3.33032
G1 X173.28 Y113.211 E3.34363
G1 X173.572 Y114.177 E3.35692
G1 X173.61 Y114.93 E3.36685
G1 X173.61 Y124.704 E3.49554
G1 X173.555 Y125.935 E3.51177
G1 X173.229 Y126.891 E3.52507
G1 X172.623 Y127.698 E3.53836
M204 S625
M205 X10 Y10
G1 F1500 E-2.96164
;MESH:case2_cornerpiece1.stl
G0 F2571.4 X169.786 Y126.19
G0 X169.786 Y124.786
G0 X167.64 Y122.64
M204 S500
M205 X5 Y5
;TYPE:WALL-INNER
G1 F1500 E3.53836
G1 F1200 X165.778 Y122.64 E3.55937
G1 X165.787 Y122.514 E3.5608
G1 X165.148 Y120.886 E3.58054
G1 X163.868 Y119.693 E3.60029
G1 X162.36 Y119.233 E3.61808
G1 X162.36 Y117.36 E3.63922
G1 X167.64 Y117.36 E3.69881
G1 X167.64 Y122.64 E3.7584
M204 S625
M205 X10 Y10
G0 F2571.4 X168 Y123
M204 S500
M205 X5 Y5
G1 F1200 X165.583 Y123 E3.78568
G1 X165.582 Y123 E3.78569
G1 X165.39 Y123 E3.78786
G1 X165.404 Y122.808 E3.78924
G1 X165.422 Y122.569 E3.79194
G1 X164.843 Y121.094 E3.80983
G1 X163.683 Y120.013 E3.82772
G1 X162.162 Y119.549 E3.84567
G1 X162 Y119.573 E3.84752
G1 X162 Y119.549
G1 X162 Y117 E3.87629
G1 X168 Y117 E3.944
G1 X168 Y123 E4.01172
M204 S625
M205 X10 Y10
G0 F2571.4 X168.36 Y123.36
M204 S500
M205 X5 Y5
G1 F1200 X165.195 Y123.36 E4.04744
G1 X165.194 Y123.36 E4.04746
G1 X165.002 Y123.36 E4.04962
G1 X165.016 Y123.168 E4.051
G1 X165.057 Y122.624 E4.05716
G1 X164.538 Y121.302 E4.07319
G1 X163.498 Y120.333 E4.08923
G1 X162.135 Y119.917 E4.10531
G1 X161.845 Y119.961 E4.10862
G1 X161.64 Y119.992 E4.11096
G1 X161.64 Y119.785 E4.11241
G1 X161.64 Y119.784 E4.11243
G1 X161.64 Y116.64 E4.14791
G1 X168.36 Y116.64 E4.22375
G1 X168.36 Y123.36 E4.2996
M204 S625
M205 X10 Y10
G0 F2571.4 X168.72 Y123.72
M204 S500
M205 X5 Y5
G1 F1200 X164.807 Y123.72 E4.34376
G1 X164.806 Y123.72 E4.34377
G1 X164.614 Y123.72 E4.34594
G1 X164.628 Y123.528 E4.34732
G1 X164.692 Y122.679 E4.35693
G1 X164.233 Y121.51 E4.3711
G1 X163.313 Y120.653 E4.38529
G1 X162.108 Y120.285 E4.39951
G1 X161.485 Y120.379 E4.40662
G1 X161.28 Y120.41 E4.40896
G1 X161.28 Y120.203 E4.41041
G1 X161.28 Y120.202 E4.41042
G1 X161.28 Y116.28 E4.45469
G1 X168.72 Y116.28 E4.53866
G1 X168.72 Y123.72 E4.62263
M204 S625
M205 X10 Y10
G0 F2571.4 X169.08 Y124.08
M204 S500
M205 X5 Y5
G1 F1200 X164.3 Y124.08 E4.67658
G1 X164.245 Y124.08 E4.6772
G1 X164.097 Y124.08 E4.67887
G1 X164.245 Y123.824 E4.68078
G1 X164.249 Y123.77 E4.68133
G1 X164.327 Y122.734 E4.69306
G1 X163.928 Y121.718 E4.70538
G1 X163.128 Y120.973 E4.71771
G1 X162.081 Y120.653 E4.73007
G1 X161.16 Y120.793 E4.74058
G1 X161.002 Y120.816 E4.74239
G1 X160.92 Y120.872 E4.74351
G1 X160.92 Y120.816
G1 X160.92 Y120.656 E4.74479
G1 X160.92 Y115.92 E4.79824
G1 X169.08 Y115.92 E4.89034
G1 X169.08 Y124.08 E4.98243
M204 S625
M205 X10 Y10
G0 F2571.4 X169.44 Y124.44
M204 S500
M205 X5 Y5
G1 F1200 X163.784 Y124.44 E5.04627
G1 X163.783 Y124.44 E5.04628
G1 X163.473 Y124.44 E5.04978
G1 X163.628 Y124.171 E5.05177
G1 X163.892 Y123.715 E5.05771
G1 X163.962 Y122.789 E5.06819
G1 X163.623 Y121.926 E5.07866
G1 X162.943 Y121.293 E5.08914
G1 X162.054 Y121.021 E5.09964
G1 X161.137 Y121.16 E5.1101
G1 X160.84 Y121.363 E5.11416
G1 X160.56 Y121.554 E5.11799
G1 X160.56 Y121.216 E5.12012
G1 X160.56 Y121.215 E5.12013
G1 X160.56 Y115.56 E5.18395
G1 X169.44 Y115.56 E5.28418
G1 X169.44 Y124.44 E5.3844
M204 S625
M205 X10 Y10
G0 F2571.4 X169.8 Y124.8
M204 S500
M205 X5 Y5
G1 F1200 X162.94 Y124.8 E5.46182
G1 X162.528 Y124.8 E5.46647
G1 X161.845 Y124.8 E5.47418
G1 X162.528 Y124.696 E5.47536
G1 X162.868 Y124.464 E5.47843
G1 X163.157 Y124.266 E5.48238
G1 X163.539 Y123.606 E5.49099
G1 X163.597 Y122.844 E5.49962
G1 X163.318 Y122.134 E5.50823
G1 X162.758 Y121.613 E5.51686
G1 X162.027 Y121.389 E5.52549
G1 X161.272 Y121.504 E5.53411
G1 X160.643 Y121.934 E5.54271
G1 X160.538 Y122.115 E5.54507
G1 X160.262 Y122.593 E5.5513
G1 X160.201 Y123.343 E5.55979
G1 X160.482 Y124.066 E5.56855
G1 X160.546 Y124.125 E5.56953
G1 X160.907 Y124.461 E5.57509
G1 X161.042 Y124.587 E5.57718
G1 X161.737 Y124.8 E5.58538
G1 X161.042 Y124.8 E5.58765
G1 X160.857 Y124.8 E5.58934
G1 X160.2 Y124.8 E5.59676
G1 X160.2 Y124.154 E5.60405
G1 X160.2 Y124.066 E5.60494
G1 X160.2 Y123.343 E5.60807
G1 X160.2 Y122.593 E5.6088
G1 X160.2 Y122.04 E5.61256
G1 X160.2 Y115.2 E5.68975
G1 X169.8 Y115.2 E5.7981
G1 X169.8 Y124.8 E5.90645
M204 S625
M205 X10 Y10
G0 F2571.4 X169.73 Y124.73
G0 X163.644 Y123.525
G0 X163.157 Y123.488
M204 S500
M205 X5 Y5
;TYPE:WALL-OUTER
G1 F1200 X163.201 Y122.904 E5.91416
G1 X162.987 Y122.359 E5.92187
G1 X162.558 Y121.96 E5.92959
G1 X161.998 Y121.788 E5.9373
G1 X161.419 Y121.876 E5.94501
G1 X160.936 Y122.206 E5.95271
G1 X160.644 Y122.712 E5.96041
G1 X160.597 Y123.285 E5.96798
G1 X160.813 Y123.841 E5.97583
G1 X161.242 Y124.24 E5.98355
G1 X161.802 Y124.412 E5.99126
G1 X162.381 Y124.324 E5.99897
G1 X162.864 Y123.994 E6.00667
G1 X163.157 Y123.488 E6.01437
M204 S625
M205 X10 Y10
G0 F2571.4 X163.172 Y123.289
G0 X163.632 Y123.323
G0 X163.659 Y123.325
G0 X169.73 Y124.73
G0 X170.19 Y125.19
M204 S500
M205 X5 Y5
G1 F1200 X159.81 Y125.19 E6.15105
G1 X159.81 Y114.81 E6.28773
G1 X170.19 Y114.81 E6.4244
G1 X170.19 Y125.19 E6.56108
M204 S625
M205 X10 Y10
G0 F2571.4 X169.99 Y125.19
G0 X169.728 Y124.728
G0 X169.7 Y124.728
G0 X167.26 Y122.26
M204 S500
M205 X5 Y5
;TYPE:SKIN
G1 F1200 X166.095 Y122.26 E6.57642
G1 X165.471 Y120.667 E6.59895
G1 X164.063 Y119.355 E6.62429
G1 X162.74 Y118.952 E6.6425
G1 X162.74 Y117.74 E6.65846
G1 X167.26 Y117.74 E6.71798
G1 X167.26 Y122.26 E6.77749
M204 S625
M205 X10 Y10
G0 F2571.4 X167.082 Y118.376
M204 S500
M205 X5 Y5
G1 F1200 X166.622 Y117.917 E6.78605
M204 S625
M205 X10 Y10
G0 F2571.4 X166.028 Y117.917
M204 S500
M205 X5 Y5
G1 F1200 X167.082 Y118.97 E6.80567
M204 S625
M205 X10 Y10
G0 F2571.4 X167.082 Y119.564
M204 S500
M205 X5 Y5
G1 F1200 X165.434 Y117.917 E6.83635
M204 S625
M205 X10 Y10
G0 F2571.4 X164.84 Y117.917
M204 S500
M205 X5 Y5
G1 F1200 X167.082 Y120.158 E6.87809
M204 S625
M205 X10 Y10
G0 F2571.4 X167.082 Y120.752
M204 S500
M205 X5 Y5
G1 F1200 X164.246 Y117.917 E6.93089
M204 S625
M205 X10 Y10
G0 F2571.4 X163.652 Y117.917
M204 S500
M205 X5 Y5
G1 F1200 X167.082 Y121.346 E6.99475
M204 S625
M205 X10 Y10
G0 F2571.4 X167.082 Y121.94
M204 S500
M205 X5 Y5
G1 F1200 X163.058 Y117.917 E7.06967
M204 S625
M205 X10 Y10
G0 F2571.4 X162.915 Y118.368
M204 S500
M205 X5 Y5
G1 F1200 X163.566 Y119.018 E7.08179
M204 S625
M205 X10 Y10
G0 F2571.4 X165.947 Y121.399
M204 S500
M205 X5 Y5
G1 F1200 X166.631 Y122.083 E7.09452
M204 S625
M205 X10 Y10
;MESH:NONMESH
G0 F600 X166.631 Y122.083 Z0.4
G0 F2571.4 X168.1 Y123.1
;TIME_ELAPSED:39.380099
;LAYER:1
M106 S85
M204 S750
M205 X7.5 Y7.5
;TYPE:WALL-INNER
;MESH:case2_cornerpiece1.stl
G1 F1500 X165.441 Y123.1 E7.11953
G1 X165.44 Y123.1 E7.11954
G1 X165.281 Y123.1 E7.12104
G1 X165.292 Y122.941 E7.12199
G1 X165.314 Y122.652 E7.12472
G1 X165.32 Y122.583 E7.12537
G1 X164.756 Y121.153 E7.13983
G1 X163.631 Y120.101 E7.15431
G1 X162.157 Y119.65 E7.16881
G1 X161.9 Y119.689 E7.17125
G1 X161.9 Y119.65
G1 X161.9 Y116.9 E7.19712
G1 X168.1 Y116.9 E7.25543
G1 X168.1 Y123.1 E7.31374
M204 S2812
M205 X30 Y30
G0 F5785.7 X168.4 Y123.4
M204 S750
M205 X7.5 Y7.5
G1 F1500 X165.118 Y123.4 E7.34461
G1 X165.117 Y123.4 E7.34462
G1 X164.958 Y123.4 E7.34612
G1 X164.969 Y123.241 E7.34707
G1 X165.01 Y122.698 E7.35219
G1 X165.016 Y122.629 E7.35284
G1 X164.502 Y121.326 E7.36602
G1 X163.477 Y120.368 E7.37921
G1 X162.134 Y119.957 E7.39242
G1 X161.771 Y120.013 E7.39588
G1 X161.6 Y120.038 E7.3975
G1 X161.6 Y119.866 E7.39851
G1 X161.6 Y119.865 E7.39852
G1 X161.6 Y116.6 E7.42923
G1 X168.4 Y116.6 E7.49318
G1 X168.4 Y123.4 E7.55714
M204 S2812
M205 X30 Y30
G0 F5785.7 X168.7 Y123.7
M204 S750
M205 X7.5 Y7.5
G1 F1500 X164.795 Y123.7 E7.59387
G1 X164.794 Y123.7 E7.59387
G1 X164.634 Y123.7 E7.59538
G1 X164.646 Y123.54 E7.59634
G1 X164.706 Y122.744 E7.60384
G1 X164.712 Y122.675 E7.6045
G1 X164.248 Y121.499 E7.61639
G1 X163.323 Y120.635 E7.62829
G1 X162.111 Y120.264 E7.64021
G1 X161.471 Y120.362 E7.6463
G1 X161.3 Y120.387 E7.64793
G1 X161.3 Y120.215 E7.64893
G1 X161.3 Y120.214 E7.64894
G1 X161.3 Y116.3 E7.68576
G1 X168.7 Y116.3 E7.75535
G1 X168.7 Y123.7 E7.82495
M204 S2812
M205 X30 Y30
G0 F5785.7 X169 Y124
M204 S750
M205 X7.5 Y7.5
G1 F1500 X164.401 Y124 E7.86821
G1 X164.322 Y124 E7.86895
G1 X164.234 Y124 E7.86978
G1 X164.322 Y123.848 E7.87061
G1 X164.327 Y123.77 E7.87122
G1 X164.402 Y122.79 E7.88046
G1 X164.408 Y122.721 E7.88111
G1 X163.994 Y121.672 E7.89172
G1 X163.169 Y120.902 E7.90233
G1 X162.089 Y120.571 E7.91296
G1 X161.172 Y120.711 E7.92168
G1 X161 Y120.737 E7.92332
G1 X161 Y120.564 E7.92433
G1 X161 Y120.563 E7.92434
G1 X161 Y116 E7.96725
G1 X169 Y116 E8.0425
G1 X169 Y124 E8.11774
M204 S2812
M205 X30 Y30
G0 F5785.7 X169.3 Y124.3
M204 S750
M205 X7.5 Y7.5
G1 F1500 X163.974 Y124.3 E8.16783
G1 X163.973 Y124.3 E8.16784
G1 X163.716 Y124.3 E8.17026
G1 X163.844 Y124.077 E8.17163
G1 X164.028 Y123.757 E8.1751
G1 X164.098 Y122.836 E8.18379
G1 X164.104 Y122.767 E8.18444
G1 X163.74 Y121.845 E8.19376
G1 X163.015 Y121.169 E8.20309
G1 X162.066 Y120.878 E8.21242
G1 X161.086 Y121.027 E8.22175
G1 X160.933 Y121.132 E8.22349
G1 X160.7 Y121.29 E8.22614
G1 X160.7 Y121.009 E8.22761
G1 X160.7 Y121.008 E8.22762
G1 X160.7 Y115.7 E8.27755
G1 X169.3 Y115.7 E8.35843
G1 X169.3 Y124.3 E8.43932
M204 S2812
M205 X30 Y30
G0 F5785.7 X169.6 Y124.6
M204 S750
M205 X7.5 Y7.5
G1 F1500 X163.399 Y124.6 E8.49764
G1 X163.309 Y124.6 E8.49849
G1 X163.024 Y124.6 E8.50117
G1 X163.309 Y124.406 E8.50249
G1 X163.353 Y124.328 E8.5032
G1 X163.734 Y123.666 E8.51039
G1 X163.794 Y122.883 E8.51777
G1 X163.8 Y122.813 E8.51844
G1 X163.486 Y122.018 E8.52647
G1 X162.861 Y121.436 E8.53451
G1 X162.043 Y121.185 E8.54255
G1 X161.198 Y121.313 E8.55059
G1 X160.653 Y121.685 E8.5568
G1 X160.492 Y121.794 E8.55863
G1 X160.4 Y121.954 E8.56036
G1 X160.4 Y121.794 E8.56055
G1 X160.4 Y121.599 E8.56182
G1 X160.4 Y115.4 E8.62012
G1 X169.6 Y115.4 E8.70665
G1 X169.6 Y124.6 E8.79318
M204 S2812
M205 X30 Y30
G0 F5785.7 X161.778 Y124.747
G0 X160.763 Y124.6
M204 S750
M205 X7.5 Y7.5
G1 F1500 X160.4 Y124.6 E8.7966
G1 X160.4 Y124.263 E8.79977
G1 X160.568 Y124.419 E8.80048
G1 X160.763 Y124.6 E8.80136
M204 S2812
M205 X30 Y30
G0 F5785.7 X161.778 Y124.747
G0 X162.504 Y124.638
G0 X163.535 Y123.604
G0 X163.44 Y123.575
M204 S750
M205 X7.5 Y7.5
G1 F1500 X163.496 Y122.859 E8.80812
G1 X163.232 Y122.191 E8.81487
G1 X162.707 Y121.703 E8.82161
G1 X162.02 Y121.492 E8.82837
G1 X161.31 Y121.599 E8.83512
G1 X160.718 Y122.003 E8.84187
G1 X160.396 Y122.562 E8.84793
G1 X160.361 Y122.622 E8.84859
G1 X160.301 Y123.305 E8.85503
G1 X160.395 Y123.556 E8.85756
G1 X160.565 Y124.006 E8.86208
G1 X161.093 Y124.497 E8.86886
G1 X161.44 Y124.604 E8.87228
G1 X161.78 Y124.708 E8.87562
G1 X162.49 Y124.601 E8.88237
G1 X163.083 Y124.197 E8.88912
G1 X163.44 Y123.575 E8.89587
M204 S2812
M205 X30 Y30
G0 F5785.7 X163.122 Y123.477
M204 S500
M205 X5 Y5
;TYPE:WALL-OUTER
G1 F1200 X163.166 Y122.909 E8.90212
G1 X162.957 Y122.379 E8.90837
G1 X162.54 Y121.992 E8.91461
G1 X161.995 Y121.824 E8.92087
G1 X161.432 Y121.909 E8.92712
G1 X160.962 Y122.23 E8.93336
G1 X160.678 Y122.722 E8.9396
G1 X160.631 Y123.26 E8.94552
G1 X160.842 Y123.82 E8.95209
G1 X161.26 Y124.208 E8.95835
G1 X161.805 Y124.376 E8.96461
G1 X162.368 Y124.291 E8.97085
G1 X162.838 Y123.97 E8.9771
G1 X163.122 Y123.477 E8.98334
M204 S2812
M205 X30 Y30
G0 F5785.7 X163.137 Y123.278
G0 X163.521 Y123.308
G0 X163.56 Y123.311
G0 X169.83 Y124.83
G0 X169.9 Y124.9
M204 S750
M205 X7.5 Y7.5
;TYPE:WALL-INNER
G1 F1500 X162.49 Y124.9 E9.05303
